svgs/sharp-solid/child-dress.svg

<svg xmlns="http://www.w3.org/2000/svg" viewBox="0 0 320 512"><!--! Font Awesome Pro 6.6.0 by @fontawesome - https://fontawesome.com License - https://fontawesome.com/license (Commercial License) Copyright 2024 Fonticons, Inc. --><path d="M96 64a64 64 0 1 1 128 0A64 64 0 1 1 96 64zm4.9 96l16 0 86.2 0 16 0 9.6 12.8 72.1 96L320 294.4l-51.2 38.4-19.2-25.6-15.3-20.4L272 400l-40 0 0 80 0 32-64 0 0-32 0-80-16 0 0 80 0 32-64 0 0-32 0-80-40 0L85.7 286.8 70.4 307.2 51.2 332.8 0 294.4l19.2-25.6 72.1-96 9.6-12.8z"/></svg>

<svg xmlns="http://www.w3.org/2000/svg" viewBox="0 0 320 512"><!--! Font Awesome Pro 6.4.0 by @fontawesome - https://fontawesome.com License - https://fontawesome.com/license (Commercial License) Copyright 2023 Fonticons, Inc. --><path d="M96 64a64 64 0 1 1 128 0A64 64 0 1 1 96 64zm4.9 96h16 86.2 16l9.6 12.8 72.1 96L320 294.4l-51.2 38.4-19.2-25.6-15.3-20.4L272 400H232v80 32H168V480 400H152v80 32H88V480 400H48L85.7 286.8 70.4 307.2 51.2 332.8 0 294.4l19.2-25.6 72.1-96 9.6-12.8z"/></svg>
